X:8
P:Humphrey's Tune (The Hippo Hop)
C:Anselm Lingnau
M:2/4
K:A
E4|"A"A2(3ABA G2A2|c2(3cdc B2c2|Acea "E7"g2(3fgf|"A"e4 E4|
 "E"G2(3GAG ^^F2G2|B2(3BcB ^A2B2|dBGB "E7"f2^e2|"A"=e4E4|
 "A"A2(3ABA G2A2|c2(3cdc B2c2|aecA "A7"e2^e2|"D"f4 a4|
 ((3fgf) ef a2f2|"A"e2ag fecA|"E7"e^d=dF c2B2|"A"A4 "E7"e4|
 "A"c^Bce f2e2|c2(3ABA G2A2|ecAE A2F2|"E"G4 B4|
 B^ABd e2d2|B2(3GAG F2E2|"E7"e^de=d B2^B2|"A"c4||
|:"E7"e4|"A"c^Bce f2e2|c2(3ABA G2A2|ecAc e2^e2|"D"f4 a4|
 ((3fgf) ef a2f2|"A"e2ag fecA|"E7"e^d=dF c2B2|"A"A4:|
